X: 811
T: The rights of man
C: anon.
O: Ireland
B: Francis O'Neill: "The Dance Music of Ireland" (1907) no. 811
R: Hornpipe
Z: Transcribed by Frank Nordberg - http://www.musicaviva.com
F: http://www.musicaviva.com/abc/tunes/ireland/oneill-1001/oneill-1001-081
1.abc
M: C|
L: 1/8
K: Em
(GA)|(3(Bcd) (AB) GAGF|EFGA B2(ef)|gfed edBd|cBAG A2GA|(3(Bcd) (AB) GAGF|
EFGA B2(ef)|gfed Bgfg|e2E2E2|]
(ga)|babg efga|babg egfe|d2d^c defg|afbf afdf|edef gfga|(3(bag) (af) gfef
|gfed Bgfg|e2E2E2|]
W:
W:
W: From Musica Viva - http://www.musicaviva.com
W: the Internet center for free sheet music downloads.


